X: 31727
T: Pat Donald
R: barndance
M: 4/4
K: Dmajor
FG|AAAA f2 c2|e2 d2 d2 FG|AAAA f2 c2|e2 d2 B3 d|
c2 ce B2 Bd|c2 ce B2 B2|gf g2 B2 c2|dA FA f2 FG|
AAAA f2 c2|e2 d2 d2 FG|AAAA f2 c2|e2 d2 B3 d|
c2 ce B2 Bd|c2 ce B2 B2|cA ^GA f2 e2|d6 A2||
ffff e2 d2|AB A2 A2 A2|ffff e2 d2|B6 Bd|
cccc B2 A2|c2 c2 c2 =G2|BBBB A2 G2|F6 A2|
ffff e2 d2|AB A2 A2 A2|ffff e2 d2|b6 B2|
cccc B2 A2|a2 a2 a2 g2|fA ^GA f2 e2|d6||

